svgicons/cloud-saved-b.svg

<svg width="835" height="585" viewBox="0 0 835 585" fill="none" xmlns="http://www.w3.org/2000/svg">
<path fill-rule="evenodd" clip-rule="evenodd" d="M709.384 209.436C709.384 225.339 706.386 240.591 701.044 254.539C777.146 269.921 834.484 337.316 834.484 418.007C834.484 510.17 759.815 584.864 667.684 584.864H188.134C84.5352 584.864 0.483643 500.784 0.483643 397.15C0.483643 315.286 52.8693 245.675 125.844 219.995C125.714 216.475 125.584 212.955 125.584 209.436C125.584 94.2 218.887 0.864258 334.084 0.864258C411.359 0.864258 478.731 42.8393 514.827 105.411C534.635 92.1143 558.612 84.2928 584.284 84.2928C653.349 84.2928 709.384 140.346 709.384 209.436ZM252.599 361.682L363.008 472.335C369.641 478.984 380.396 478.984 387.03 472.336L582.368 276.563C589.001 269.915 589.001 259.136 582.368 252.488L558.347 228.413C551.714 221.765 540.958 221.765 534.325 228.413L375.019 388.072L300.642 313.531C294.009 306.883 283.254 306.883 276.621 313.531L252.599 337.607C245.966 344.255 245.966 355.034 252.599 361.682Z" fill="#767676"/>
</svg>

<svg xmlns="http://www.w3.org/2000/svg" xml:space="preserve" style="fill-rule:evenodd;clip-rule:evenodd;stroke-linejoin:round;stroke-miterlimit:2" viewBox="0 0 1000 1000"><path d="M709.384 209.436c0 15.903-2.998 31.155-8.34 45.103 76.102 15.382 133.44 82.777 133.44 163.468 0 92.163-74.669 166.857-166.8 166.857h-479.55C84.535 584.864.484 500.784.484 397.15c0-81.864 52.385-151.475 125.36-177.155-.13-3.52-.26-7.04-.26-10.559C125.584 94.2 218.887.864 334.084.864c77.275 0 144.647 41.975 180.743 104.547 19.808-13.297 43.785-21.118 69.457-21.118 69.065 0 125.1 56.053 125.1 125.143ZM252.599 361.682l110.409 110.653c6.633 6.649 17.388 6.649 24.022.001l195.338-195.773c6.633-6.648 6.633-17.427 0-24.075l-24.021-24.075c-6.633-6.648-17.389-6.648-24.022 0L375.019 388.072l-74.377-74.541c-6.633-6.648-17.388-6.648-24.021 0l-24.022 24.076c-6.633 6.648-6.633 17.427 0 24.075Z" style="fill:#767676" transform="translate(0 149.701) scale(1.1976)"/></svg>
